X: 13
T: Belfast, The
Z: leprecawn
S: https://thesession.org/tunes/4#setting50246
R: hornpipe
M: 4/4
L: 1/8
K: Dmaj
|:ag| (3faf df AdFA| DFAd f2 ef| gfec dcAF|GABG E2 ag|
(3faf df AdFA| DFAd f2 ef| gfed cABc| d2 f2 d2:|
|:(3DEF| GFGA Bcde| fgfe dcdB|A2 f2 f2 ef|G2 e2 ed e2|
GFGA Bcde| fgfe dcdB| Afed cABc| dfec d2:|
|:ag| (3fgf (3efe (3ded (3cdc|(3BcB (3ABA G2 ba| (3gag (3fgf (3efe (3ded| (3cdc (3BcB A2 ag|
(3fgf (3efe (3ded (3cdc|(3BcB (3ABA (3GAG (3FGF| | Efed cABc|d2 f2 d2 :|

